X: 2
T: Fighting 59th
M: 6/8
L: 1/8
Q: 120 - 126 / 155 - 160 bpm
R: march / quickstep
K: D Major
|: A2 c |
d2 d d2 c  | B2 A F2 A |  B2 c d2 c | B2 A ABc | 
d2 d d2 d | d2 B c2 d | e2 f e2 d | c A2 ABc |
d2 e f2 e | d2 A A2 F | G2 F G2 A | B3- B2 c | 
d2 d c2 d | B2 A F2 A | d2 f e2 c | d3- d2 c |
B2 A F2 D | F2 F F2 D | A2 F A2 B | A3- A2 d | 
B2 A FED | F2 F FED | E2 D E2 F | E3- E2 d |
B2 A F2 D | F2 F FED | A2 F A2 B | A3- A2 B | 
ABc d2 F | E3 D3 :|
